!!!COM: Anon.
!!!OTL: Aserrin, Aserra/n
!! Maria Cadilla de Martinez,
!! Juegos Y Canciones Infantiles de Puerto Rico
!! Talleres Graficos, Cas Baldrich, Brau 93, San Juan, P.R.
!! 1940.  Derechos reservados de la Autora
!! page 121
!! Allegro
**kern
*clefG2
*k[]
*M2/4
{8e
8e
=
4g},
{8a
8a
=
4g},
{8e
8e
=
8g
8g
8a
8a
=
4g},
{8e
8e
=
4g},
{8a
8a
=
4g},
{8e
8e
=
8g
8g
8a
8a
=
8g
8g},
{8e
8e
=
8g
8g
8a
8a
=
8g
8g},
{8g
8g
=
8g
8g},
{8g
8g
=
4c}
4r
==
*-
